Papirus/16x16/mimetypes/x-office-document.svg

<svg xmlns="http://www.w3.org/2000/svg" width="16" height="16" version="1.1">
 <path fill="#3d4fb3" d="m2.75 1c-0.4172 0-0.75 0.3328-0.75 0.75v13.5c0 0.417 0.3328 0.75 0.75 0.75h10.5c0.418 0 0.75-0.332 0.75-0.75v-9.25l-4.125-0.875-0.875-4.125z"/>
 <path fill="#737fcf" d="m9 1v4.1667c0 0.4584 0.3749 0.8333 0.8333 0.8333h4.1667z"/>
 <path style="fill:#ffffff" d="m 5,7 v 1 h 6 V 7 Z m 0,2 v 1 h 6 V 9 Z m 0,2 v 1 h 6 v -1 z m 0,2 v 1 h 3 v -1 z"/>
</svg>

<svg xmlns="http://www.w3.org/2000/svg" width="16" height="16" version="1.1">
 <path style="fill:#1b83d4" d="M 2.75,1 C 2.3328,1 2,1.3328 2,1.75 V 15.25 C 2,15.667 2.3328,16 2.75,16 H 13.25 C 13.668,16 14,15.668 14,15.25 V 6 L 9.875,5.125 9,1 Z"/>
 <path style="fill:#3b9ce6" d="M 9,1 V 5.1667 C 9,5.6251 9.3749,6 9.8333,6 H 14 Z"/>
 <path style="fill:#ffffff" d="M 4,9 V 10 H 7 V 9 Z M 4,11 V 12 H 12 V 11 Z M 4,13 V 14 H 9 V 13 Z"/>
 <rect style="fill:#7ad2f9" width="4" height="2" x="8" y="8"/>
</svg>
